style-img/Slide 16_9 - 7.svg

<svg width="1440" height="810" fill="none" xmlns="http://www.w3.org/2000/svg"><g clip-path="url(#a)"><path d="M746.632 466.568v8.904c0 5.88 1.624 7.728 8.904 7.728h8.848c5.488 0 7.336-1.792 8.12-8.848-1.848-.392-4.648-1.344-5.936-2.352-.28 4.592-.672 5.264-2.744 5.264h-7.504c-2.632 0-3.08-.224-3.08-1.904v-8.792h-6.608Zm5.488-1.624c3.36 2.072 7.336 5.264 9.072 7.616l4.928-4.2c-1.904-2.352-6.048-5.32-9.352-7.224l-4.648 3.808Zm17.136 2.856c3.864 4.144 7.616 9.856 8.904 13.72l6.216-2.968c-1.456-4.088-5.432-9.52-9.352-13.44l-5.768 2.688Zm-30.464-1.96c-1.232 4.872-3.752 9.632-7.392 12.544l5.6 3.752c4.144-3.472 6.328-8.96 7.84-14.392l-6.048-1.904Zm5.376-28.392v5.824h38.08v-5.824h-38.08Zm11.48 8.68v5.264h23.408v-5.264h-23.408Zm.056 8.4v5.544h24.864v-5.544h-24.864Zm-3.08-15.064v23.744h6.776v-23.744h-6.776Zm-7.728-8.176c-2.464 7.56-7.224 14.504-12.992 18.704 1.624 1.12 4.48 3.64 5.712 4.984 5.88-5.04 11.2-13.048 14.336-21.896l-7.056-1.792Zm53.648 46.088.448 5.488c9.128-.168 22.736-.616 35.448-1.064l.224-5.04c-13.104.336-27.16.56-36.12.616Zm25.928-14.224c-4.872 4.928-12.88 11.2-19.208 15.008l4.256 2.856c6.328-3.584 14.392-9.464 20.552-14.784l-5.6-3.08Zm-10.696-3.248c-1.96 2.632-5.376 6.16-8.064 8.344l4.088 2.464c2.8-1.96 6.272-5.04 9.408-7.952l-5.432-2.856Zm-12.824 8.512c3.92 2.24 9.016 5.768 11.368 8.12l4.536-4.368c-2.632-2.352-7.84-5.6-11.704-7.672l-4.2 3.92Zm23.408 4.2c3.64 3.472 7.84 8.344 9.744 11.536l5.656-2.856c-2.072-3.304-6.496-7.952-10.136-11.2l-5.264 2.52Zm-24.472-28.056v4.592h17.472v-4.592h-17.472Zm19.04 0v4.592h19.488v-4.592h-19.488Zm-12.824-3.304v19.992h4.928v-19.992h-4.928Zm6.776 9.184v8.288h3.696v-8.288h-3.696Zm12.264-9.184v20.384h4.984v-20.384h-4.984Zm-24.416 9.128v2.128c0 2.24-.336 5.32-2.408 7.224 1.008.56 2.52 1.68 3.192 2.52 2.464-2.744 2.8-6.44 2.8-9.576v-2.296h-3.584Zm18.928 0v2.016c0 2.128-.336 5.096-2.52 6.888 1.008.56 2.576 1.736 3.248 2.576 2.576-2.632 2.968-6.272 2.968-9.24v-2.24h-3.696Zm12.32-.056v6.16c0 2.464.224 3.304.84 4.032.56.616 1.624.896 2.576.896h1.736c.56 0 1.288-.056 1.736-.336.616-.28 1.064-.672 1.344-1.288.336-.56.448-2.072.56-3.472-.952-.28-2.24-.952-2.968-1.512 0 1.176-.056 2.128-.168 2.576-.112.392-.168.616-.336.728-.056.056-.28.112-.448.112h-.504c-.224 0-.336-.112-.448-.224V450.328h-3.92Zm-19.712-18.872v7.224h7v-7.224h-7Zm-17.024 4.368v5.6h44.296v-5.6H795.24Zm-3.864 0v17.024c0 8.176-.28 19.656-4.088 27.552 1.344.672 4.088 2.744 5.152 3.864 4.368-8.68 5.096-22.456 5.096-31.416v-17.024h-6.16Zm90.496 1.232v38.36c0 1.176-.448 1.568-1.792 1.624-1.344 0-6.216.056-10.248-.224 1.064 1.848 2.408 5.152 2.8 7.168 5.768 0 9.856-.112 12.656-1.288 2.688-1.064 3.64-3.08 3.64-7.112v-38.528h-7.056Zm-32.032 11.2v26.096h6.552v-26.096h-6.552Zm2.8 0v6.384h14.448v9.016H852.64v6.384h21.112v-21.784H852.64Zm-7.952-13.048v6.776h50.736v-6.776h-50.736Zm72.912 5.88c3.416 4.256 7 10.136 8.456 14.056l6.552-3.528c-1.624-3.92-5.208-9.408-8.848-13.496l-6.16 2.968Zm-18.2 29.456 2.352 7.168c6.328-2.688 14.616-6.16 22.064-9.52l-1.568-6.608c-8.176 3.416-17.08 7-22.848 8.96Zm32.816-5.04c5.152 5.712 11.984 13.496 14.952 18.48l5.712-5.544c-3.192-4.872-10.36-12.32-15.456-17.64l-5.208 4.704Zm7.616-30.856c-2.072 23.128-7.84 36.792-25.704 43.512 1.624 1.456 4.424 4.48 5.376 5.992 18.368-8.288 25.144-23.464 27.776-48.832l-7.448-.672Zm-34.048.224 1.288 36.4 7-.28-1.232-36.4-7.056.28Zm77.448 11.368H998.8v3.08h-15.568v-3.08Zm0-7.504H998.8v3.024h-15.568v-3.024Zm-6.048-4.76v20.16h27.946v-20.16h-27.946Zm4.2 18.704c-1.96 4.872-5.936 10.136-12.432 13.944 1.344.896 3.36 3.192 4.2 4.704 7.448-4.816 11.872-10.976 14.728-17.584l-6.496-1.064Zm1.624 4.592-3.808 5.488h23.69v-5.488h-19.882Zm17.582 0v1.064c-.39 13.832-.894 18.76-1.79 19.936-.504.616-.952.784-1.68.784-.896 0-2.576-.056-4.424-.28.728 1.456 1.4 3.696 1.456 5.208 2.52.056 4.76.056 6.218-.168 1.57-.224 2.8-.728 3.86-2.128 1.46-1.904 2.07-7.28 2.58-21.952.05-.784.05-2.464.05-2.464h-6.27Zm-23.686 6.44v10.472c0 5.208 1.232 6.832 6.944 6.832h6.888c4.032 0 5.6-1.344 6.328-6.496-1.624-.336-3.976-1.232-5.096-2.128-.168 2.912-.448 3.36-1.848 3.36h-5.488c-1.848 0-2.128-.224-2.128-1.68v-10.36h-5.6Zm14 .672c-2.576 1.736-7.112 3.584-11.2 4.76.672 1.12 1.512 2.968 1.792 4.032 4.592-1.12 9.912-2.8 13.944-4.928l-4.536-3.864Zm-29.568-27.328v6.048h6.496v19.768h-6.496v6.16h12.152v-31.976h-12.152Zm-3.752 0v36.624h5.824v-36.624h-5.824Zm63.556-4.424c-1.79 7.728-5.2 15.4-9.63 19.992 1.79.728 5.04 2.408 6.5 3.416 4.2-5.208 7.95-13.44 10.13-22.064l-7-1.344Zm1.01 8.288-1.96 6.608h40.21v-6.608h-38.25Zm-9.69 17.808v6.664h51.19v-6.664h-51.19Zm22.68-27.272v52.584h7.17v-52.584h-7.17Zm32.93 11.144v6.216h18.15V442.6h-18.15Zm7.56-11.144c-1.73 11.144-4.81 25.928-7.22 34.776l5.49 2.912c2.63-10.08 5.88-25.088 8.06-37.016l-6.33-.672Zm-4.25 33.88c5.32 3.472 11.76 8.792 14.61 12.656l3.98-5.376c-2.97-3.808-9.63-8.736-14.95-12.04l-3.64 4.76Zm12.48-22.736v1.232c-1.06 17.696-6.1 30.072-15.68 35.056 1.35 1.288 3.14 3.696 4.04 5.32 11.2-6.832 16.63-19.208 17.97-41.104l-4.03-.672-1.18.168h-1.12Zm6.05-8.176v6.048h18.31v-6.048h-18.31Zm18.76 15.456-.84 6.048h8.07v-6.048h-7.23Zm4.99 0v1.176c-.56 17.416-1.35 24.248-2.69 25.76-.62.672-1.18.784-2.13.784-1.18 0-3.75 0-6.44-.224 1.06 1.736 1.85 4.424 1.96 6.272 2.91.168 5.71.168 7.5-.112 1.96-.28 3.31-.84 4.71-2.632 1.9-2.296 2.57-9.52 3.3-28.28.06-.784.11-2.744.11-2.744h-6.32Zm-18.76-13.384c-.12 16.52.05 33.152-8.01 43.176 1.68 1.008 3.81 2.968 4.87 4.48 8.96-11.368 9.52-29.568 9.74-47.656h-6.6Zm11.64-2.072c-.28 7.56-1.12 17.304-2.07 23.408l6.11.448c.84-6.16 1.68-16.016 2.12-23.856h-6.16Zm39.15 30.184h7.28c-.9-7.728 11.37-8.736 11.37-16.912 0-7.448-5.94-11.256-14.06-11.256-5.99 0-10.92 2.744-14.5 6.888l4.59 4.2c2.74-2.856 5.54-4.424 8.96-4.424 4.42 0 7.11 1.904 7.11 5.32 0 5.432-11.93 7.392-10.75 16.184Zm3.69 14.952c2.8 0 4.93-2.072 4.93-4.984s-2.13-4.928-4.93-4.928c-2.85 0-4.98 2.016-4.98 4.928s2.07 4.984 4.98 4.984Z" fill="#424242"/></g><defs><clipPath id="a"><path fill="#fff" d="M0 0h1440v810H0z"/></clipPath></defs></svg>

<svg width="1440" height="810" viewBox="0 0 1440 810" fill="none" xmlns="http://www.w3.org/2000/svg">
<g clip-path="url(#clip0_727_3050)">
<path d="M746.632 466.568V475.472C746.632 481.352 748.256 483.2 755.536 483.2C756.936 483.2 762.872 483.2 764.384 483.2C769.872 483.2 771.72 481.408 772.504 474.352C770.656 473.96 767.856 473.008 766.568 472C766.288 476.592 765.896 477.264 763.824 477.264C762.312 477.264 757.44 477.264 756.32 477.264C753.688 477.264 753.24 477.04 753.24 475.36V466.568H746.632ZM752.12 464.944C755.48 467.016 759.456 470.208 761.192 472.56L766.12 468.36C764.216 466.008 760.072 463.04 756.768 461.136L752.12 464.944ZM769.256 467.8C773.12 471.944 776.872 477.656 778.16 481.52L784.376 478.552C782.92 474.464 778.944 469.032 775.024 465.112L769.256 467.8ZM738.792 465.84C737.56 470.712 735.04 475.472 731.4 478.384L737 482.136C741.144 478.664 743.328 473.176 744.84 467.744L738.792 465.84ZM744.168 437.448V443.272H782.248V437.448H744.168ZM755.648 446.128V451.392H779.056V446.128H755.648ZM755.704 454.528V460.072H780.568V454.528H755.704ZM752.624 439.464V463.208H759.4V439.464H752.624ZM744.896 431.288C742.432 438.848 737.672 445.792 731.904 449.992C733.528 451.112 736.384 453.632 737.616 454.976C743.496 449.936 748.816 441.928 751.952 433.08L744.896 431.288ZM798.544 477.376L798.992 482.864C808.12 482.696 821.728 482.248 834.44 481.8L834.664 476.76C821.56 477.096 807.504 477.32 798.544 477.376ZM824.472 463.152C819.6 468.08 811.592 474.352 805.264 478.16L809.52 481.016C815.848 477.432 823.912 471.552 830.072 466.232L824.472 463.152ZM813.776 459.904C811.816 462.536 808.4 466.064 805.712 468.248L809.8 470.712C812.6 468.752 816.072 465.672 819.208 462.76L813.776 459.904ZM800.952 468.416C804.872 470.656 809.968 474.184 812.32 476.536L816.856 472.168C814.224 469.816 809.016 466.568 805.152 464.496L800.952 468.416ZM824.36 472.616C828 476.088 832.2 480.96 834.104 484.152L839.76 481.296C837.688 477.992 833.264 473.344 829.624 470.096L824.36 472.616ZM799.888 444.56V449.152H817.36V444.56H799.888ZM818.928 444.56V449.152H838.416V444.56H818.928ZM806.104 441.256V461.248H811.032V441.256H806.104ZM812.88 450.44V458.728H816.576V450.44H812.88ZM825.144 441.256V461.64H830.128V441.256H825.144ZM800.728 450.384V452.512C800.728 454.752 800.392 457.832 798.32 459.736C799.328 460.296 800.84 461.416 801.512 462.256C803.976 459.512 804.312 455.816 804.312 452.68V450.384H800.728ZM819.656 450.384V452.4C819.656 454.528 819.32 457.496 817.136 459.288C818.144 459.848 819.712 461.024 820.384 461.864C822.96 459.232 823.352 455.592 823.352 452.624V450.384H819.656ZM831.976 450.328V456.488C831.976 458.952 832.2 459.792 832.816 460.52C833.376 461.136 834.44 461.416 835.392 461.416C835.84 461.416 836.624 461.416 837.128 461.416C837.688 461.416 838.416 461.36 838.864 461.08C839.48 460.8 839.928 460.408 840.208 459.792C840.544 459.232 840.656 457.72 840.768 456.32C839.816 456.04 838.528 455.368 837.8 454.808C837.8 455.984 837.744 456.936 837.632 457.384C837.52 457.776 837.464 458 837.296 458.112C837.24 458.168 837.016 458.224 836.848 458.224C836.624 458.224 836.456 458.224 836.344 458.224C836.12 458.224 836.008 458.112 835.896 458C835.896 457.832 835.896 457.44 835.896 456.768V450.328H831.976ZM812.264 431.456V438.68H819.264V431.456H812.264ZM795.24 435.824V441.424H839.536V435.824H795.24ZM791.376 435.824V452.848C791.376 461.024 791.096 472.504 787.288 480.4C788.632 481.072 791.376 483.144 792.44 484.264C796.808 475.584 797.536 461.808 797.536 452.848V435.824H791.376ZM881.872 437.056V475.416C881.872 476.592 881.424 476.984 880.08 477.04C878.736 477.04 873.864 477.096 869.832 476.816C870.896 478.664 872.24 481.968 872.632 483.984C878.4 483.984 882.488 483.872 885.288 482.696C887.976 481.632 888.928 479.616 888.928 475.584V437.056H881.872ZM849.84 448.256V474.352H856.392V448.256H849.84ZM852.64 448.256V454.64H867.088V463.656H852.64V470.04H873.752V448.256H852.64ZM844.688 435.208V441.984H895.424V435.208H844.688ZM917.6 441.088C921.016 445.344 924.6 451.224 926.056 455.144L932.608 451.616C930.984 447.696 927.4 442.208 923.76 438.12L917.6 441.088ZM899.4 470.544L901.752 477.712C908.08 475.024 916.368 471.552 923.816 468.192L922.248 461.584C914.072 465 905.168 468.584 899.4 470.544ZM932.216 465.504C937.368 471.216 944.2 479 947.168 483.984L952.88 478.44C949.688 473.568 942.52 466.12 937.424 460.8L932.216 465.504ZM939.832 434.648C937.76 457.776 931.992 471.44 914.128 478.16C915.752 479.616 918.552 482.64 919.504 484.152C937.872 475.864 944.648 460.688 947.28 435.32L939.832 434.648ZM905.784 434.872L907.072 471.272L914.072 470.992L912.84 434.592L905.784 434.872ZM983.232 446.24H998.8V449.32H983.232V446.24ZM983.232 438.736H998.8V441.76H983.232V438.736ZM977.184 433.976V454.136H1005.13V433.976H977.184ZM981.384 452.68C979.424 457.552 975.448 462.816 968.952 466.624C970.296 467.52 972.312 469.816 973.152 471.328C980.6 466.512 985.024 460.352 987.88 453.744L981.384 452.68ZM983.008 457.272L979.2 462.76H1002.89V457.272H983.008ZM1000.59 457.272V458.336C1000.2 472.168 999.696 477.096 998.8 478.272C998.296 478.888 997.848 479.056 997.12 479.056C996.224 479.056 994.544 479 992.696 478.776C993.424 480.232 994.096 482.472 994.152 483.984C996.672 484.04 998.912 484.04 1000.37 483.816C1001.94 483.592 1003.17 483.088 1004.23 481.688C1005.69 479.784 1006.3 474.408 1006.81 459.736C1006.86 458.952 1006.86 457.272 1006.86 457.272H1000.59ZM976.904 463.712V474.184C976.904 479.392 978.136 481.016 983.848 481.016C984.968 481.016 989.56 481.016 990.736 481.016C994.768 481.016 996.336 479.672 997.064 474.52C995.44 474.184 993.088 473.288 991.968 472.392C991.8 475.304 991.52 475.752 990.12 475.752C989.056 475.752 985.416 475.752 984.632 475.752C982.784 475.752 982.504 475.528 982.504 474.072V463.712H976.904ZM990.904 464.384C988.328 466.12 983.792 467.968 979.704 469.144C980.376 470.264 981.216 472.112 981.496 473.176C986.088 472.056 991.408 470.376 995.44 468.248L990.904 464.384ZM961.336 437.056V443.104H967.832V462.872H961.336V469.032H973.488V437.056H961.336ZM957.584 437.056V473.68H963.408V437.056H957.584ZM1021.14 432.632C1019.35 440.36 1015.94 448.032 1011.51 452.624C1013.3 453.352 1016.55 455.032 1018.01 456.04C1022.21 450.832 1025.96 442.6 1028.14 433.976L1021.14 432.632ZM1022.15 440.92L1020.19 447.528H1060.4V440.92H1022.15ZM1012.46 458.728V465.392H1063.65V458.728H1012.46ZM1035.14 431.456V484.04H1042.31V431.456H1035.14ZM1068.07 442.6V448.816H1086.22V442.6H1068.07ZM1075.63 431.456C1073.9 442.6 1070.82 457.384 1068.41 466.232L1073.9 469.144C1076.53 459.064 1079.78 444.056 1081.96 432.128L1075.63 431.456ZM1071.38 465.336C1076.7 468.808 1083.14 474.128 1085.99 477.992L1089.97 472.616C1087 468.808 1080.34 463.88 1075.02 460.576L1071.38 465.336ZM1083.86 442.6V443.832C1082.8 461.528 1077.76 473.904 1068.18 478.888C1069.53 480.176 1071.32 482.584 1072.22 484.208C1083.42 477.376 1088.85 465 1090.19 443.104L1086.16 442.432L1084.98 442.6H1083.86ZM1089.91 434.424V440.472H1108.22V434.424H1089.91ZM1108.67 449.88L1107.83 455.928H1115.9V449.88H1108.67ZM1113.66 449.88V451.056C1113.1 468.472 1112.31 475.304 1110.97 476.816C1110.35 477.488 1109.79 477.6 1108.84 477.6C1107.66 477.6 1105.09 477.6 1102.4 477.376C1103.46 479.112 1104.25 481.8 1104.36 483.648C1107.27 483.816 1110.07 483.816 1111.86 483.536C1113.82 483.256 1115.17 482.696 1116.57 480.904C1118.47 478.608 1119.14 471.384 1119.87 452.624C1119.93 451.84 1119.98 449.88 1119.98 449.88H1113.66ZM1094.9 436.496C1094.78 453.016 1094.95 469.648 1086.89 479.672C1088.57 480.68 1090.7 482.64 1091.76 484.152C1100.72 472.784 1101.28 454.584 1101.5 436.496H1094.9ZM1106.54 434.424C1106.26 441.984 1105.42 451.728 1104.47 457.832L1110.58 458.28C1111.42 452.12 1112.26 442.264 1112.7 434.424H1106.54ZM1145.69 464.608H1152.97C1152.07 456.88 1164.34 455.872 1164.34 447.696C1164.34 440.248 1158.4 436.44 1150.28 436.44C1144.29 436.44 1139.36 439.184 1135.78 443.328L1140.37 447.528C1143.11 444.672 1145.91 443.104 1149.33 443.104C1153.75 443.104 1156.44 445.008 1156.44 448.424C1156.44 453.856 1144.51 455.816 1145.69 464.608ZM1149.38 479.56C1152.18 479.56 1154.31 477.488 1154.31 474.576C1154.31 471.664 1152.18 469.648 1149.38 469.648C1146.53 469.648 1144.4 471.664 1144.4 474.576C1144.4 477.488 1146.47 479.56 1149.38 479.56Z" fill="#424242"/>
</g>
<defs>
<clipPath id="clip0_727_3050">
<rect width="1440" height="810" fill="white"/>
</clipPath>
</defs>
</svg>
